X:2
T:22. The Limestone Rock
S:Mike Rafferty
Z:Lesl
M:C|
L:1/8
K:G
dc|:B~G3 AGFA|D~G3 A2dc|B~G3 A2AB|cABG A2dc|
B~G3 AGFA|D~G3 A2dc|B~G3 A2AB|cABG A2 B/^c/d|
|e~edB eBd2|egdB A2 B/^c/d|eB~B2 GB~B2|BABG A2B/^c/d|
eged ea~af|gedB A2BA|G~GBd ~g3b|1agef g2dc:|2agef gedB|G4||

